X:1
T:Title
%%score { ( 1 3 5 ) | ( 2 4 ) }
L:1/8
M:4/4
K:C
V:1 treble nm="Grand Piano"
V:3 treble 
V:5 treble 
V:2 bass 
V:4 bass 
V:1
 z4 z2[Q:1/4=94] G2 | c2 z2 B2 E2 | A2 z2 G2 z2 | F2 z2 E2 z2 |[M:3/4] G6 |[M:1/4] G2 | %6
[M:4/4] c2 z2 B2 z2 | A4 G2 G2 | c2 z2 B2 z2 | A4 G2 G2 | A2 z2 F2 E2 | D2 F2 A4 | A2 A2 B2 c2 | %13
 d2 B2 G4 | c2 z2 B2 z2 | A4 G2 G2 | A2 z2 B2 E2 | [EAc]6 z2 | d2 c2 B2 A2 | %19
[M:11/16] G-<Gc-<c z/ z |[M:3/8] cBc |[M:4/4] e2 c2 d4 |[M:3/4] [EGc]6 |[M:1/4] [CEc]2 | %24
[M:4/4] d2 dd d2 cd | [Ge]3 [Ec] [EG]3 [EG] | [FA]2 [GA][GA] [^FA]2 [FB][Fc] | %27
[M:17/16] d/-d/-d/-d/-d/-d/-d/-d/-d/-d-<d z/ z/ z |[M:4/4] [Ge]2 [Gd]2 [Gc]2 [GB][Gc] | %29
[M:17/16] d-<dc-<cA3/2cBA |[M:4/4] G2 e2 ec d2 |[M:3/4] c6 |] %32
V:2
 z8 | C,[G,CE][K:treble][G,CEG][G,CEG][K:bass] E,,[^G,B,D][G,B,D][G,B,] | %2
 F,,[K:treble][A,C][A,CF][A,CF][K:bass] z [G,C]B,,C, | z B,^G,,A,, z [^F,A,]D,C, | %4
[M:3/4] D,2 D,E, [F,B,]2 |[M:1/4] G,2 |[M:4/4][K:treble] z E[B,EG][CEG] z E[A,EG][B,EG] | %7
 z [B,D][B,D][B,D] z[K:treble] [B,D][B,DF][B,D] | z E[B,EG][CEG] z E[A,EG][B,EG] | %9
 z [CD][CD][CD] z [B,D][B,DF][K:bass][B,D] | z ^C[G,CE][E,C] z A, z [G,A,] | %11
 z F,[F,A,D][F,A,] z[K:treble] [A,D][A,D][A,DF] | %12
 z [CD][K:treble][CD^F][CD][K:bass] z [CD] z[K:treble] [CF] | z F[FG]F [EF]3 [B,DF] | %14
 z E[B,EG][CEG] z E[A,EG][B,EG] | z [CD][CD][CD] z [B,D][B,DF][K:bass][B,D] | %16
 A,,[E,A,][E,A,C][E,A,C] E,,[^G,B,][G,B,D][G,B,] | A,,E,A,B,[K:treble] C2 c2 | %18
 F,[CF][CFA][CF][K:bass] ^F,[C_E][K:treble][CE^F][CE] |[M:11/16] G,C[CEG][CE][K:bass][^G,,^G,]3/2 | %20
[M:3/8] z3 |[M:4/4] z[K:treble] E[EG]E[K:bass] z[K:treble] [FG][FG][EG] | %22
[M:3/4] CA,[K:bass] G,E, C,2 |[M:1/4] C,2 | %24
[M:4/4][K:treble] [G,B,F]2 [G,B,F][G,B,F] [G,B,F]2 [G,CE][G,B,F] | [C,C]3 [C,C] [C,C]3 [C,C] | %26
 [F,C]2 [E,^C][E,C] [D,D]2 [D,A,][D,A,] | %27
[M:17/16][K:treble] [G,B,F]-<[G,B,F][A,C]-<[A,C]B,/-B,-<B,[K:bass][E,B,][D,B,] | %28
[M:4/4] [C,C]2 [D,B,]2 [E,C]2 [E,C][E,C] | %29
[M:17/16] [F,A,F]-<[F,A,F][F,A,F]-<[F,A,F][F,CF]3/2[^F,A,_E][F,B,E][F,CE] | %30
[M:4/4][K:treble] [G,CE]2 [G,CG]2 GE [G,F]2 |[M:3/4][K:bass] G,2 z2 z2 |] %32
V:3
 x8 | z Gec z E z D | z FcA z EB,C | z D^G,A, z CDC |[M:3/4] B,2 B,C D2 |[M:1/4] x2 | %6
[M:4/4] z GBc z GAB | z FFF z F z F | z GBc z GAB | z ^FFF z =F z F | z EGE z D z ^C | %11
 z A, z D z FFA | z ^F z F z F z A | z G z G z G,A,G | z GBc z GAB | z ^FFF z =F z F | %16
 z C^GA z D z D | x8 | z A z A z ^F z F |[M:11/16] z .E3/2 z/ G[_E^Gc]3/2 |[M:3/8] x3 | %21
[M:4/4] z G z G z BBc |[M:3/4] x6 |[M:1/4] x2 |[M:4/4] x8 | x8 | x8 | %27
[M:17/16] z/ z/ z/ z/ z/ z/ z G/-G-<G z/ z/ z |[M:4/4] x8 |[M:17/16] x17/2 |[M:4/4] x8 | %31
[M:3/4] E2 F2 E2 |] %32
V:4
 x8 | x2[K:treble] x2[K:bass] x4 | z4[K:treble][K:bass] C,2 z2 | [G,,G,]2 z2 D,,2 z2 | %4
[M:3/4] G,,6 |[M:1/4] x2 |[M:4/4][K:treble] C2 z2 B,2 z2 | A,4 G,2[K:treble] G,2 | C2 z2 B,2 z2 | %9
 A,4 G,2 z2[K:bass] | A,2 z2 F,2 E,2 | D,4 D,4[K:treble] | %12
 [D,,D,]4[K:treble][K:bass] [D,,D,]4[K:treble] | G,2 B,2 z4 | C2 z2 B,2 z2 | A,4 G,2 z2[K:bass] | %16
 x8 | x4[K:treble] x4 | x4[K:bass] x2[K:treble] x2 |[M:11/16] x4[K:bass] x3/2 |[M:3/8] x3 | %21
[M:4/4] [G,,G,]4[K:treble][K:bass] [G,,G,]4[K:treble] |[M:3/4] x2[K:bass] x4 |[M:1/4] x2 | %24
[M:4/4][K:treble] x8 | x8 | x8 | %27
[M:17/16][K:treble] z/ z/ z/ z/ z/ z/ z .G,3/2 z/ z/[K:bass] z/ z/ z |[M:4/4] x8 |[M:17/16] x17/2 | %30
[M:4/4][K:treble] z4 [G,C]2 z2 |[M:3/4][K:bass] C,2- [C,-A,]2 [C,G,]2 |] %32
V:5
 x8 | x8 | x8 | x8 |[M:3/4] x6 |[M:1/4] x2 |[M:4/4] x8 | x8 | x8 | x8 | x8 | x8 | x8 | x8 | x8 | %15
 x8 | x8 | x8 | x8 |[M:11/16] x11/2 |[M:3/8] x3 |[M:4/4] x8 |[M:3/4] x6 |[M:1/4] x2 |[M:4/4] x8 | %25
 x8 | x8 |[M:17/16] z/ z/ z ^F-<F z F,3/2GG |[M:4/4] x8 |[M:17/16] x17/2 |[M:4/4] x8 |[M:3/4] x6 |] %32

